X:1
T:Title
%%score ( 1 2 ) ( 3 4 )
L:1/8
Q:1/4=92
M:4/4
K:E
V:1 treble nm="Grand Piano, Soprano"
V:2 treble 
V:3 bass nm="Choir Pad, Bass"
V:4 bass 
V:1
 [GB] [GB]2 [EG] [GB] [FA]2 [DF] | [FA][EG][GB][Ge] [EG] [EG]2 [DF] | %2
w: By~Asa~Hull * * * * *||
 [FB] [GB]2 [EG] [GB] [FA]2 [DF] | [FA][EG][B,E][B,D] [B,F] [B,E]3 | %4
w: ||
 [DF] [DF]2 [B,D] B, [B,G]2 [B,E] | z A z2 z4 | [Ac] [GB]2 [EG] [GB] [FA]2 [DF] | %7
w: |||
 [FA][EG][B,E][B,D] [B,F] [B,E]3 | B B2 [Ac] [Ad] [Ge]2 [GB] | [Ge] [Fd]2 [Ac] [Ad] e2 B | %10
w: |||
 [GB]/[GB]/ [GB]2 [EG] [GB]/[Ge]/ [Fd]2 [DA] | z A z2 z4 | z8 |] %13
w: |||
V:2
 x8 | x8 | x8 | x8 | x8 | [EG]D-[DF][B,D] B,[B,E][EG][GB] | x8 | x8 | x8 | z4 z G3 | x8 | %11
 [DA]/[DA]/D- [DF][Dc] [DB] E3- | E4 z4 |] %13
V:3
 [E,E] [E,E]2 [E,B,] [E,B,] [B,,B,]2 [B,,B,] | [B,,B,] [E,B,]2 [E,B,] [E,B,] [B,,B,]3 | %2
 [D,B,] [E,B,]2 [E,B,] [E,B,] [B,,B,]2 [B,,B,] | [B,,B,]B,G,[B,,F,] [B,,A,] [E,G,]3 | %4
 [B,,B,] [B,,B,]2 [B,,F,] [D,F,] E,2 [E,G,] | [E,B,] [B,,B,]2 [B,,F,] [D,F,]G,B,E | %6
 [E,E] [E,E]2 [E,B,] [E,B,] [B,,B,]2 [B,,B,] | [B,,B,]B,G,[B,,F,] [B,,A,] [E,G,]3 | %8
 B, B,2 B, B, [E,B,]2 [E,B,] | [E,B,] B,2 B, B, [E,B,]3 | %10
 [E,E]/[E,E]/ [E,E]2 [E,B,] [E,B,]/[E,B,]/ [B,,B,]2 [B,,B,] | %11
 [B,,B,]/[B,,B,]/ [B,,B,]2 [B,,B,] [B,,B,] [E,G,]3- | [E,G,]4 z4 |] %13
V:4
 x8 | x8 | x8 | z .B,,3 z4 | x8 | z4 z .E,3 | x8 | z .B,,3 z4 | x8 | x8 | x8 | x8 | x8 |] %13

